X: 30324
T: Old Micky McKiernan's
R: reel
M: 4/4
K: Dmajor
D2 FD FAAB|d2 fd BAFA|B2 BA FAdB|AFDF EDB,C|
D2 FD FAAB|d2 fd BAFA|B2 BA FAdB|AFDF EDB,C|
D2 FD FAAB|d2 fd BAFA|B2 BA FAdB|AFDF EB, B,2|
D2 FD FAAB|d2 fd BAFA|B2 BA FAdB|AFDF E2 D2|
|:defg afdf|afdf eB B2|defg afdf|abaf e2 d2|
defg afdf|afdf eBBA|B2 BA FAdB|AFDF E2 D2:|

